X: 1
T: Cape Cod Girls
P: piffero primo b0041
O: safd 068
%R: march
F: http://ancients.sudburymuster.org/mus/ssp/pdf/seamedF.pdf
Z: 2019 John Chambers <jc:trillian.mit.edu>
M: 2/4
L: 1/16
K: G
z2 \
| B2B2 d2d2 | G2G2 D4 | G3B d4 | e3B d4 \
| B2B2 d2d2 | G2G2 D4 | G2A2 Bd2B | A2G2 G2 :|
|: z2 \
| g2g2 g2e2 | dedB G4 | G3B d4 | e3B d4 \
| g2g2 g2e2 | dedB G4 | G2A2 Bd2B | A2G2 G2 :|
